images/facebook.svg

<svg width="45" height="45" viewBox="0 0 45 45" fill="none" xmlns="http://www.w3.org/2000/svg">
<path d="M45 22.5564C45 10.1053 34.92 0 22.5 0C10.08 0 0 10.1053 0 22.5564C0 33.4737 7.74 42.5639 18 44.6617V29.3233H13.5V22.5564H18V16.9173C18 12.5639 21.5325 9.02256 25.875 9.02256H31.5V15.7895H27C25.7625 15.7895 24.75 16.8045 24.75 18.0451V22.5564H31.5V29.3233H24.75V45C36.1125 43.8722 45 34.2632 45 22.5564Z" fill="black"/>
</svg>

<svg width="45" height="45" fill="none" xmlns="http://www.w3.org/2000/svg"><path d="M45 22.556C45 10.106 34.92 0 22.5 0S0 10.105 0 22.556c0 10.918 7.74 20.008 18 22.106V29.323h-4.5v-6.767H18v-5.639c0-4.353 3.532-7.894 7.875-7.894H31.5v6.767H27a2.26 2.26 0 00-2.25 2.255v4.511h6.75v6.767h-6.75V45C36.112 43.872 45 34.263 45 22.556z" fill="#000"/></svg>
